packages/webapp/public/images/template-logos/shopify.svg

<svg width="62" height="62" viewBox="0 0 62 62" fill="none" xmlns="http://www.w3.org/2000/svg">
<path d="M45.1668 17.4723C45.1374 17.2502 44.9546 17.127 44.8013 17.1135C44.65 17.1 41.6888 17.0524 41.6888 17.0524C41.6888 17.0524 39.211 14.5085 38.9653 14.2497C38.7197 13.991 38.2422 14.0692 38.0575 14.1277C38.0536 14.1288 37.5918 14.2802 36.8117 14.5353C36.682 14.0887 36.4894 13.5392 36.2163 12.9876C35.334 11.2077 34.043 10.2666 32.4809 10.2641H32.475C32.3669 10.2641 32.2588 10.2751 32.1507 10.2848C32.1055 10.2263 32.0584 10.1689 32.0093 10.1128C31.3294 9.34375 30.4589 8.96898 29.4136 9.00201C27.3975 9.06309 25.3893 10.6023 23.7623 13.3366C22.6167 15.2604 21.7442 17.6775 21.4966 19.5487C19.1819 20.3067 17.5627 20.8365 17.5274 20.8488C16.3602 21.237 16.3228 21.2748 16.1695 22.4395C16.0575 23.3195 13 48.3145 13 48.3145L38.6214 52.9992L49.7256 50.0804C49.7256 50.0804 45.1963 17.6945 45.1668 17.4723ZM35.5286 14.9552C34.9391 15.1482 34.269 15.3678 33.54 15.6059C33.5262 14.5268 33.4045 13.0254 32.9289 11.7279C34.4597 12.0341 35.2122 13.8639 35.5286 14.9552ZM32.1999 16.0455C30.8578 16.4848 29.3919 16.9645 27.9221 17.4455C28.3368 15.7718 29.1207 14.1057 30.0836 13.0132C30.4412 12.6066 30.9423 12.1537 31.5357 11.8951C32.0938 13.1254 32.2137 14.8673 32.1999 16.0455ZM29.4528 10.4205C29.9264 10.4095 30.3253 10.5194 30.6653 10.756C30.1209 11.0552 29.5943 11.4848 29.1011 12.0451C27.8199 13.4978 26.8394 15.7523 26.4464 17.9276C25.2262 18.3269 24.0334 18.7187 22.933 19.0775C23.6267 15.6534 26.3423 10.5156 29.4528 10.4205Z" fill="#95BF47"/>
<path d="M44.8013 17.1158C44.6499 17.1025 41.6868 17.0549 41.6868 17.0549C41.6868 17.0549 39.2089 14.5109 38.9652 14.2522C38.8729 14.1556 38.751 14.1055 38.6213 14.085V53.0003L49.7255 50.0814C49.7255 50.0814 45.1962 17.6969 45.1667 17.4748C45.1373 17.2525 44.9526 17.1293 44.8013 17.1158Z" fill="#5E8E3E"/>
<path d="M32.4672 23.1505L31.1781 28.2517C31.1781 28.2517 29.7378 27.5599 28.0341 27.6742C25.5327 27.8404 25.5052 29.5086 25.5308 29.9262C25.6683 32.2072 31.3452 32.7058 31.6635 38.0511C31.913 42.2538 29.5531 45.1311 26.1536 45.3576C22.0724 45.6297 19.8245 43.0848 19.8245 43.0848L20.6891 39.1958C20.6891 39.1958 22.9527 40.999 24.7625 40.8785C25.9454 40.7996 26.3678 39.7816 26.3246 39.0628C26.1458 36.0879 21.5242 36.2624 21.2314 31.3721C20.9858 27.2587 23.5422 23.0882 29.1817 22.7124C31.355 22.5646 32.4672 23.1505 32.4672 23.1505Z" fill="white"/>
</svg>

<svg xmlns="http://www.w3.org/2000/svg" width="62" height="62" fill="none"><path d="M45.167 17.472c-.029-.222-.212-.345-.366-.359s-3.112-.061-3.112-.061l-2.724-2.803c-.246-.259-.723-.181-.908-.122l-1.246.408a9.51 9.51 0 0 0-.595-1.548c-.882-1.78-2.173-2.721-3.735-2.724h-.006c-.108 0-.216.011-.324.021l-.141-.172c-.68-.769-1.55-1.144-2.596-1.111-2.016.061-4.024 1.6-5.651 4.335-1.146 1.924-2.018 4.341-2.266 6.212l-3.969 1.3c-1.167.388-1.205.426-1.358 1.591L13 48.315l25.621 4.685 11.104-2.919-4.559-32.608zm-9.638-2.517l-1.989.651c-.014-1.079-.136-2.581-.611-3.878 1.531.306 2.283 2.136 2.6 3.227zm-3.329 1.09l-4.278 1.4c.415-1.674 1.199-3.34 2.162-4.432.358-.407.859-.859 1.452-1.118.558 1.23.678 2.972.664 4.15zm-2.747-5.625c.474-.011.872.099 1.212.335-.544.299-1.071.729-1.564 1.289-1.281 1.453-2.262 3.707-2.655 5.883l-3.513 1.15c.694-3.424 3.409-8.562 6.52-8.657z" fill="#95bf47"/><path d="M44.801 17.116c-.151-.013-3.114-.061-3.114-.061l-2.722-2.803a.59.59 0 0 0-.344-.167V53l11.104-2.919-4.559-32.607c-.029-.222-.214-.345-.365-.359z" fill="#5e8e3e"/><path d="M32.467 23.151l-1.289 5.101s-1.44-.692-3.144-.578c-2.501.166-2.529 1.834-2.503 2.252.137 2.281 5.814 2.78 6.133 8.125.25 4.203-2.11 7.08-5.51 7.307-4.081.272-6.329-2.273-6.329-2.273l.865-3.889s2.264 1.803 4.073 1.683c1.183-.079 1.605-1.097 1.562-1.816-.179-2.975-4.8-2.8-5.093-7.691-.246-4.113 2.311-8.284 7.95-8.66 2.173-.148 3.285.438 3.285.438z" fill="#fff"/></svg>
